TheColourOfVoice/Assets/Scenes/MainGame/LUTs/LUTs_P.CUBE
#Created by: Adobe Photoshop Export Color Lookup Plugin
TITLE "LUTs_P.png"
#LUT size
LUT_3D_SIZE 5
#data domain
#LUT data points
DOMAIN_MIN 0.000000 0.000000 0.000000
DOMAIN_MAX 0.903226 0.903226 0.903226
0.000000 0.000000 0.000000
0.121521 0.056519 0.007019
0.243042 0.113068 0.014038
0.364594 0.169708 0.021088
0.486115 0.226257 0.028107
0.331909 0.280579 0.243896
0.325165 0.273712 0.237183
0.337433 0.285797 0.248810
0.329224 0.279266 0.244080
0.327515 0.276947 0.240692
0.331909 0.280579 0.243896
0.317688 0.269135 0.235046
0.325226 0.274353 0.237671
0.317688 0.269135 0.235046
0.333069 0.282196 0.245667
0.325867 0.275665 0.239746
0.323059 0.272705 0.237061
0.329163 0.278259 0.241638
0.321381 0.271423 0.236084
0.331421 0.280884 0.244690
0.081970 0.073883 0.068329
0.074615 0.065704 0.059540
0.081329 0.072571 0.066254
0.074799 0.067383 0.062500
0.077911 0.068329 0.061432
0.009735 0.094330 0.168396
0.127106 0.148804 0.175201
0.252777 0.207428 0.182465
0.374329 0.264008 0.189514
0.495850 0.320557 0.196533
0.337433 0.285797 0.248810
0.327606 0.277985 0.243164
0.329163 0.278259 0.241638
0.319489 0.272064 0.238922
0.327515 0.276947 0.240692
0.987854 0.986145 0.999207
0.315369 0.266510 0.231995
0.329163 0.278259 0.241638
0.329224 0.279266 0.244080
0.329803 0.279572 0.243774
0.337433 0.285797 0.248810
0.319305 0.270416 0.235962
0.335205 0.283173 0.245789
0.321564 0.273071 0.239044
0.325378 0.275970 0.240570
0.393860 0.396271 0.386078
0.513641 0.453186 0.392883
0.631012 0.507660 0.399658
0.752563 0.564178 0.406708
0.874084 0.620758 0.413727
0.019470 0.188690 0.336853
0.136841 0.243164 0.343658
0.254181 0.297668 0.350433
0.384064 0.358368 0.357941
0.505615 0.414917 0.364990
0.327972 0.276642 0.239868
0.315369 0.266510 0.231995
0.335205 0.283173 0.245789
0.329224 0.279266 0.244080
0.327515 0.276947 0.240692
0.545410 0.518921 0.505798
0.307678 0.260315 0.226929
0.335205 0.283173 0.245789
0.329224 0.279266 0.244080
0.337433 0.285797 0.248810
0.327972 0.276642 0.239868
0.305573 0.259338 0.226807
0.340759 0.288422 0.250702
0.313263 0.265533 0.231873
0.317566 0.268127 0.232605
0.397675 0.488892 0.554016
0.519226 0.545441 0.561066
0.640778 0.602051 0.568085
0.762299 0.658569 0.575104
0.883820 0.715088 0.582153
0.029236 0.283081 0.505310
0.146576 0.337555 0.512085
0.263947 0.392029 0.518890
0.381317 0.446503 0.525665
0.498688 0.500977 0.532471
0.337921 0.285492 0.247986
0.319305 0.270416 0.235962
0.336823 0.284454 0.246704
0.317688 0.269135 0.235046
0.333710 0.283508 0.247742
0.339752 0.288422 0.251892
0.327606 0.277985 0.243164
0.328979 0.276611 0.238708
0.329224 0.279266 0.244080
0.987854 0.986145 0.999207
0.331909 0.280579 0.243896
0.317688 0.269135 0.235046
0.329163 0.278259 0.241638
0.325500 0.277008 0.243042
0.323578 0.273041 0.236725
0.407440 0.583252 0.722473
0.528961 0.639801 0.729492
0.650482 0.696381 0.736542
0.772034 0.752899 0.743561
0.893555 0.809479 0.750580
0.038971 0.377441 0.673737
0.156311 0.431854 0.680511
0.273682 0.486359 0.687317
0.391052 0.540863 0.694092
0.508423 0.595367 0.700897
0.329803 0.279572 0.243774
0.329224 0.279266 0.244080
0.337433 0.285797 0.248810
0.339203 0.288116 0.252197
0.333527 0.281860 0.244812
0.339569 0.286743 0.248932
0.315369 0.266510 0.231995
0.346771 0.293335 0.254822
0.315552 0.268158 0.234924
0.337433 0.285797 0.248810
0.335815 0.284485 0.247864
0.309326 0.261627 0.227905
0.329163 0.278259 0.241638
0.311615 0.264221 0.230927
0.327515 0.276947 0.240692
0.417175 0.677643 0.890900
0.538696 0.734192 0.897919
0.660217 0.790710 0.904938
0.777618 0.845215 0.911743
0.894958 0.899658 0.918518
