TheColourOfVoice/Assets/Scenes/MainGame/LUTs/LUTs_P.CUBE
#Created by: Adobe Photoshop Export Color Lookup Plugin
TITLE "LUTs_P.png"
#LUT size
LUT_3D_SIZE 32
#data domain
DOMAIN_MIN 0.0 0.0 0.0
DOMAIN_MAX 1.0 1.0 1.0
#LUT data points
0.000000 0.000000 0.000000
0.017365 0.008057 0.001007
0.034729 0.016144 0.002014
0.052063 0.024200 0.002991
0.069427 0.032318 0.003998
0.086792 0.040375 0.005005
0.104156 0.048462 0.006012
0.121521 0.056519 0.007019
0.138855 0.064636 0.008026
0.156250 0.072693 0.009033
0.173615 0.080780 0.010040
0.190979 0.088898 0.011047
0.208313 0.096954 0.012054
0.225677 0.105042 0.013062
0.243042 0.113068 0.014038
0.260406 0.121124 0.015045
0.277771 0.129272 0.016052
0.295135 0.137299 0.017059
0.312500 0.145386 0.018066
0.329865 0.153442 0.019073
0.347229 0.161530 0.020081
0.364594 0.169708 0.021088
0.381958 0.177765 0.022095
0.399323 0.185760 0.023102
0.416656 0.193939 0.024109
0.434021 0.202026 0.025116
0.451385 0.209991 0.026093
0.468750 0.218048 0.027100
0.486115 0.226257 0.028107
0.503448 0.234314 0.029114
0.520813 0.242401 0.030121
0.538208 0.250366 0.031128
0.013824 0.010895 0.007782
0.030853 0.018799 0.008759
0.048218 0.026855 0.009766
0.065582 0.034943 0.010773
0.082947 0.043030 0.011780
0.100311 0.051117 0.012787
0.117676 0.059204 0.013794
0.135040 0.067291 0.014801
0.152374 0.075348 0.015808
0.169739 0.083435 0.016785
0.187103 0.091492 0.017792
0.204468 0.099579 0.018799
0.221832 0.107635 0.019806
0.239166 0.115692 0.020813
0.256531 0.123810 0.021820
0.273926 0.131897 0.022827
0.291290 0.139984 0.023834
0.308655 0.148041 0.024841
0.326019 0.156158 0.025848
0.343384 0.164246 0.026855
0.360748 0.172272 0.027863
0.378082 0.180359 0.028839
0.395447 0.188446 0.029846
0.412811 0.196472 0.030853
0.430176 0.204559 0.031860
0.447510 0.212646 0.032867
0.464905 0.220764 0.033875
0.482269 0.228851 0.034882
0.499634 0.236969 0.035889
0.516998 0.244934 0.036896
0.534332 0.253021 0.037903
0.551697 0.261139 0.038910
0.027588 0.021729 0.015533
0.044373 0.029510 0.016510
0.061737 0.037598 0.017517
0.079102 0.045654 0.018524
0.096466 0.053741 0.019531
0.113800 0.061829 0.020508
0.131165 0.069885 0.021515
0.148529 0.077972 0.022522
0.165894 0.086060 0.023529
0.183228 0.094116 0.024536
0.200623 0.102234 0.025543
0.217987 0.110291 0.026550
0.235352 0.118378 0.027557
0.252716 0.126465 0.028564
0.270050 0.134552 0.029572
0.287415 0.142639 0.030579
0.304810 0.150726 0.031586
0.322144 0.158752 0.032562
0.339508 0.166809 0.033569
0.356873 0.174957 0.034576
0.374237 0.183014 0.035583
0.391571 0.191101 0.036591
0.408966 0.199158 0.037598
0.426331 0.207275 0.038605
0.443695 0.215302 0.039612
0.461060 0.223419 0.040619
0.478394 0.231445 0.041626
0.495758 0.239532 0.042603
0.513123 0.247650 0.043610
0.530487 0.255768 0.044617
0.547852 0.263763 0.045624
0.565186 0.271851 0.046631
0.041412 0.032593 0.023315
0.058197 0.040405 0.024292
0.075226 0.048309 0.025269
0.092590 0.056396 0.026276
0.109955 0.064453 0.027283
0.127319 0.072571 0.028290
0.144684 0.080627 0.029297
0.162048 0.088745 0.030304
0.179413 0.096802 0.031311
0.196777 0.104858 0.032318
0.214111 0.112946 0.033325
0.231476 0.121002 0.034302
0.248840 0.129089 0.035309
0.266205 0.137177 0.036316
0.283569 0.145233 0.037323
0.300903 0.153320 0.038330
0.318298 0.161377 0.039337
0.335693 0.169495 0.040344
0.353027 0.177643 0.041351
0.370392 0.185638 0.042358
0.387756 0.193787 0.043365
0.405121 0.201843 0.044373
0.422455 0.209869 0.045349
0.439819 0.217926 0.046356
0.457184 0.226074 0.047363
0.474548 0.234100 0.048370
0.491913 0.242218 0.049377
0.509247 0.250244 0.050385
0.526642 0.258392 0.051392
0.544006 0.266388 0.052399
0.561371 0.274536 0.053406
0.578735 0.282654 0.054413
0.070221 0.062134 0.056396
0.067932 0.059479 0.053314
0.068573 0.060791 0.055420
0.072968 0.064392 0.058594
0.072479 0.064728 0.059418
0.069733 0.062408 0.057190
0.066284 0.058197 0.052399
0.066956 0.059540 0.054504
0.070679 0.061798 0.055542
0.072327 0.063110 0.056519
0.067932 0.059479 0.053314
0.066437 0.059814 0.055298
0.070862 0.063446 0.058472
0.070679 0.061798 0.055542
0.067932 0.059479 0.053314
0.066284 0.058197 0.052399
0.062714 0.057587 0.054260
0.068573 0.060791 0.055420
0.074615 0.065704 0.059540
0.067932 0.059479 0.053314
0.067932 0.059479 0.053314
0.070862 0.063446 0.058472
0.070862 0.063446 0.058472
0.064178 0.057220 0.052277
0.063995 0.055573 0.049347
0.060730 0.052979 0.047455
0.063019 0.055573 0.050507
0.068573 0.060791 0.055420
0.067932 0.059479 0.053314
0.061890 0.054596 0.049225
0.064636 0.056885 0.051422
0.069214 0.062103 0.057526
0.077911 0.068329 0.061432
0.069733 0.062408 0.057190
0.076263 0.067017 0.060486
0.077057 0.070007 0.065521
0.080353 0.072571 0.067413
0.081329 0.072571 0.066254
0.077911 0.068329 0.061432
0.074799 0.067383 0.062500
0.074799 0.067383 0.062500
0.074127 0.066010 0.060333
0.073700 0.066376 0.061188
0.074127 0.066010 0.060333
0.074799 0.067383 0.062500
0.078522 0.069672 0.063538
0.079712 0.071259 0.065308
0.070221 0.062134 0.056396
0.070221 0.062134 0.056396
0.078674 0.071289 0.066437
0.084076 0.074890 0.068451
0.077576 0.070282 0.065186
0.072021 0.065033 0.060211
0.074799 0.067383 0.062500
0.078674 0.071289 0.066437
0.078064 0.069977 0.064362
0.075775 0.067352 0.061310
0.074127 0.066010 0.060333
0.072968 0.064392 0.058594
0.076447 0.068665 0.063416
0.075775 0.067352 0.061310
0.069733 0.062408 0.057190
0.072479 0.064728 0.059418
0.076874 0.068359 0.062592
0.212433 0.179230 0.155792
0.199738 0.168060 0.145447
0.199005 0.166138 0.142853
0.201904 0.170044 0.147980
0.212891 0.178864 0.154938
0.213409 0.179169 0.154602
0.202271 0.168732 0.144745
0.193634 0.162537 0.140839
0.213379 0.178589 0.154144
0.214539 0.180206 0.155914
0.209686 0.176910 0.153534
0.206207 0.172668 0.148712
0.211731 0.177277 0.153198
0.213074 0.180511 0.157867
0.201843 0.169067 0.145569
0.200012 0.166107 0.141693
0.205048 0.171021 0.146973
0.213531 0.180206 0.157043
0.222839 0.187714 0.163055
0.211792 0.177887 0.153656
0.201996 0.170685 0.148468
0.207489 0.175323 0.152954
0.213531 0.180206 0.157043
0.206390 0.174316 0.151642
0.209503 0.175262 0.150604
0.206848 0.173950 0.150818
0.211243 0.177612 0.154022
0.216797 0.182831 0.158936
0.213898 0.178864 0.153778
0.205750 0.173004 0.149567
0.209137 0.176605 0.153900
0.214142 0.181519 0.159149
0.331909 0.280579 0.243896
0.326843 0.275635 0.238586
0.326324 0.275330 0.238953
0.326447 0.276367 0.241394
0.340851 0.289429 0.253143
0.342377 0.289673 0.251617
0.319672 0.269135 0.232727
0.325165 0.273712 0.237183
0.342957 0.290375 0.253265
0.335815 0.284485 0.247864
0.320831 0.270721 0.234467
0.319824 0.270752 0.235657
0.339661 0.287781 0.251373
0.345062 0.291382 0.253387
0.337433 0.285797 0.248810
0.321289 0.270416 0.233673
0.323212 0.274353 0.239990
0.339203 0.288116 0.252197
0.346405 0.294617 0.258057
0.325378 0.275970 0.240570
0.319824 0.270752 0.235657
0.329224 0.279266 0.244080
0.337555 0.286804 0.251251
0.329803 0.279572 0.243774
0.323120 0.273407 0.237549
0.317017 0.267822 0.232941
0.317688 0.269135 0.235046
0.324677 0.274017 0.237976
0.327515 0.276947 0.240692
0.325226 0.274353 0.237671
0.327118 0.278290 0.243958
0.326447 0.276367 0.241394
0.325867 0.275665 0.239746
0.319183 0.269440 0.233551
0.310516 0.263245 0.229645
0.322235 0.274384 0.241150
0.334656 0.282867 0.246094
0.336823 0.284454 0.246704
0.325684 0.274017 0.236847
0.323059 0.272705 0.237061
0.345245 0.292999 0.256317
0.341858 0.289398 0.252014
0.320831 0.270721 0.234467
0.304321 0.256683 0.222595
0.313721 0.265228 0.231049
0.333008 0.281555 0.245148
0.329163 0.278259 0.241638
0.319672 0.269135 0.232727
0.317169 0.269440 0.235840
0.335297 0.284210 0.248230
0.334167 0.283203 0.246918
0.321472 0.272064 0.236603
0.315460 0.267151 0.232483
0.321381 0.271423 0.236084
0.337555 0.286804 0.251251
0.327515 0.276947 0.240692
0.325226 0.274353 0.237671
0.320770 0.270111 0.234009
0.327606 0.277985 0.243164
0.332550 0.281891 0.245972
0.331421 0.280884 0.244690
0.315277 0.265503 0.229553
0.320953 0.271759 0.236938
0.330353 0.280273 0.245392
0.333527 0.281860 0.244812
0.313141 0.264526 0.229431
0.316559 0.268158 0.233765
0.335907 0.285492 0.250305
0.334656 0.282867 0.246094
0.332886 0.280518 0.242706
0.319672 0.269135 0.232727
0.317688 0.269135 0.235046
0.339203 0.288116 0.252197
0.340179 0.288086 0.251038
0.323120 0.273407 0.237549
0.312164 0.264557 0.230591
0.316010 0.267822 0.234100
0.329224 0.279266 0.244080
0.337280 0.284180 0.245911
0.327515 0.276947 0.240692
0.315552 0.268158 0.234924
0.327606 0.277985 0.243164
0.342316 0.289062 0.251160
0.319183 0.269440 0.233551
0.311523 0.263245 0.228516
0.325500 0.277008 0.243042
0.343445 0.290070 0.252441
0.335815 0.284485 0.247864
0.323120 0.273407 0.237549
0.320770 0.270111 0.234009
0.325317 0.275360 0.240112
0.334808 0.284515 0.249023
0.327515 0.276947 0.240692
0.315460 0.267151 0.232483
0.317017 0.267822 0.232941
0.328247 0.279297 0.245270
0.331909 0.280579 0.243896
0.326843 0.275635 0.238586
0.326508 0.276978 0.241882
0.335754 0.283844 0.247406
0.334656 0.282867 0.246094
0.322937 0.271729 0.234589
0.312164 0.264557 0.230591
0.313568 0.263611 0.228149
0.323212 0.274353 0.239990
0.338074 0.287109 0.250916
0.329163 0.278259 0.241638
0.325684 0.274017 0.236847
0.329895 0.280609 0.246216
0.336914 0.285461 0.249146
0.331268 0.279236 0.241760
0.317566 0.268127 0.232605
0.305573 0.259338 0.226807
0.329224 0.279266 0.244080
0.348541 0.295624 0.258209
0.331421 0.280884 0.244690
0.317566 0.268127 0.232605
0.321564 0.273071 0.239044
0.327606 0.277985 0.243164
0.335205 0.283173 0.245789
0.321289 0.270416 0.233673
0.320953 0.271759 0.236938
0.335449 0.285828 0.251129
0.344757 0.293304 0.257141
0.331421 0.280884 0.244690
0.319183 0.269440 0.233551
0.327118 0.278290 0.243958
0.340302 0.289124 0.253479
0.335815 0.284485 0.247864
0.317078 0.268463 0.233429
0.316406 0.266510 0.230835
0.326141 0.278320 0.245148
0.340851 0.289429 0.253143
0.340759 0.288422 0.250702
0.333374 0.280212 0.241882
0.335114 0.282532 0.245270
0.345398 0.294617 0.259216
0.350006 0.295258 0.256195
0.333069 0.282196 0.245667
0.321930 0.271729 0.235779
0.329895 0.280609 0.246216
0.335297 0.284210 0.248230
0.335205 0.283173 0.245789
0.323395 0.271362 0.233795
0.317688 0.269135 0.235046
0.329224 0.279266 0.244080
0.334351 0.284851 0.249878
0.329163 0.278259 0.241638
0.317566 0.268127 0.232605
0.325317 0.275360 0.240112
0.341309 0.289093 0.252319
0.337280 0.284180 0.245911
0.325226 0.274353 0.237671
0.314728 0.265198 0.229889
0.327606 0.277985 0.243164
0.332703 0.283508 0.248901
0.329163 0.278259 0.241638
0.323120 0.273407 0.237549
0.317169 0.269440 0.235840
0.320404 0.271454 0.237274
0.982513 0.982666 0.998993
0.890808 0.877563 0.878510
0.322754 0.274689 0.240814
0.328064 0.277618 0.242310
0.330719 0.278931 0.242126
0.334534 0.281860 0.243652
0.335632 0.282837 0.244934
0.325317 0.275360 0.240112
0.335297 0.284210 0.248230
0.341858 0.289398 0.252014
0.330780 0.279572 0.242584
0.322113 0.273376 0.238708
0.325958 0.276642 0.242188
0.336914 0.285461 0.249146
0.339081 0.287109 0.249756
0.335205 0.283173 0.245789
0.327118 0.278290 0.243958
0.333618 0.282867 0.247253
0.340179 0.288086 0.251038
0.325378 0.275970 0.240570
0.311523 0.263245 0.228516
0.321381 0.271423 0.236084
0.329742 0.278992 0.243286
0.339569 0.286743 0.248932
0.329163 0.278259 0.241638
0.318665 0.269104 0.233887
0.331543 0.281891 0.247162
0.344604 0.291687 0.254211
0.327515 0.276947 0.240692
0.311523 0.263245 0.228516
0.324860 0.275696 0.240936
0.341980 0.290405 0.254425
0.791168 0.787964 0.794952
0.480927 0.453827 0.438599
0.310364 0.261627 0.226746
0.318115 0.268829 0.234222
0.336456 0.285828 0.250000
0.334534 0.281860 0.243652
0.325684 0.274017 0.236847
0.329224 0.279266 0.244080
0.337555 0.286804 0.251251
0.328125 0.278259 0.242798
0.321472 0.272064 0.236603
0.321930 0.271729 0.235779
0.327606 0.277985 0.243164
0.330902 0.280579 0.245056
0.329163 0.278259 0.241638
0.309723 0.260284 0.224609
0.315552 0.268158 0.234924
0.337555 0.286804 0.251251
0.342499 0.290710 0.254089
0.321472 0.272064 0.236603
0.309875 0.261932 0.227539
0.321564 0.273071 0.239044
0.335297 0.284210 0.248230
0.335205 0.283173 0.245789
0.319183 0.269440 0.233551
0.308716 0.260315 0.225800
0.317688 0.269135 0.235046
0.330902 0.280579 0.245056
0.329163 0.278259 0.241638
0.315460 0.267151 0.232483
0.319305 0.270416 0.235962
0.334290 0.284210 0.249390
0.331909 0.280579 0.243896
0.320831 0.270721 0.234467
0.318665 0.269104 0.233887
0.328247 0.279297 0.245270
0.330902 0.280579 0.245056
0.326843 0.275635 0.238586
0.315887 0.266815 0.231659
0.317688 0.269135 0.235046
0.335297 0.284210 0.248230
0.340027 0.286469 0.248108
0.325378 0.275970 0.240570
0.325684 0.274017 0.236847
0.333618 0.282867 0.247253
0.331085 0.282227 0.247986
0.325226 0.274353 0.237671
0.331268 0.279236 0.241760
0.321381 0.271423 0.236084
0.339203 0.288116 0.252197
0.344116 0.292023 0.255035
0.321472 0.272064 0.236603
0.317566 0.268127 0.232605
0.317688 0.269135 0.235046
0.321381 0.271423 0.236084
0.333527 0.281860 0.244812
0.325226 0.274353 0.237671
0.503265 0.475769 0.460754
0.993439 0.989838 0.999420
0.969574 0.973572 0.993134
0.333069 0.282196 0.245667
0.315460 0.267151 0.232483
0.326965 0.276672 0.241058
0.328064 0.277618 0.242310
0.341858 0.289398 0.252014
0.326843 0.275635 0.238586
0.322571 0.273010 0.237854
0.334290 0.284210 0.249390
0.344604 0.291687 0.254211
0.334534 0.281860 0.243652
0.319672 0.269135 0.232727
0.323517 0.272400 0.236206
0.341309 0.289093 0.252319
0.341858 0.289398 0.252014
0.325226 0.274353 0.237671
0.325684 0.274017 0.236847
0.329895 0.280609 0.246216
0.333191 0.283234 0.248108
0.339081 0.287109 0.249756
0.327362 0.275330 0.237793
0.319305 0.270416 0.235962
0.329224 0.279266 0.244080
0.336456 0.285828 0.250000
0.321472 0.272064 0.236603
0.319824 0.270752 0.235657
0.323212 0.274353 0.239990
0.333618 0.282867 0.247253
0.327515 0.276947 0.240692
0.325226 0.274353 0.237671
0.330719 0.278931 0.242126
0.335297 0.284210 0.248230
0.340698 0.287781 0.250244
0.327515 0.276947 0.240692
0.311523 0.263245 0.228516
0.317017 0.267822 0.232941
0.329895 0.280609 0.246216
0.335815 0.284485 0.247864
0.317078 0.268463 0.233429
0.320312 0.270416 0.234833
0.330353 0.280273 0.245392
0.334656 0.282867 0.246094
0.334534 0.281860 0.243652
0.315887 0.266815 0.231659
0.315552 0.268158 0.234924
0.331543 0.281891 0.247162
0.336456 0.285828 0.250000
0.325378 0.275970 0.240570
0.325684 0.274017 0.236847
0.333801 0.284515 0.250183
0.330902 0.280579 0.245056
0.325226 0.274353 0.237671
0.327362 0.275330 0.237793
0.315369 0.266510 0.231995
0.327606 0.277985 0.243164
0.346405 0.294617 0.258057
0.333069 0.282196 0.245667
0.323578 0.273041 0.236725
0.321564 0.273071 0.239044
0.345245 0.292999 0.256317
0.343506 0.290710 0.252930
0.325226 0.274353 0.237671
0.314728 0.265198 0.229889
0.495361 0.471893 0.461426
0.507782 0.480408 0.466400
0.329620 0.277924 0.240814
0.319183 0.269440 0.233551
0.323059 0.272705 0.237061
0.331970 0.281586 0.246338
0.341675 0.287750 0.249054
0.330780 0.279572 0.242584
0.328613 0.277954 0.242004
0.344086 0.291412 0.254547
0.340851 0.289429 0.253143
0.336823 0.284454 0.246704
0.325684 0.274017 0.236847
0.327606 0.277985 0.243164
0.337402 0.285187 0.248352
0.341858 0.289398 0.252014
0.329163 0.278259 0.241638
0.327972 0.276642 0.239868
0.337555 0.286804 0.251251
0.336914 0.285461 0.249146
0.329163 0.278259 0.241638
0.327362 0.275330 0.237793
0.321381 0.271423 0.236084
0.335297 0.284210 0.248230
0.350189 0.296906 0.259155
0.331421 0.280884 0.244690
0.327515 0.276947 0.240692
0.339020 0.286438 0.249268
0.343597 0.291687 0.255371
0.323578 0.273041 0.236725
0.315460 0.267151 0.232483
0.314728 0.265198 0.229889
0.321564 0.273071 0.239044
0.334808 0.284515 0.249023
0.331421 0.280884 0.244690
0.317566 0.268127 0.232605
0.320953 0.271759 0.236938
0.337738 0.288452 0.254181
0.331909 0.280579 0.243896
0.313141 0.264526 0.229431
0.324219 0.274384 0.238831
0.334290 0.284210 0.249390
0.336914 0.285461 0.249146
0.338470 0.285797 0.247650
0.329620 0.277924 0.240814
0.325317 0.275360 0.240112
0.327606 0.277985 0.243164
0.324219 0.274384 0.238831
0.319183 0.269440 0.233551
0.319824 0.270752 0.235657
0.325958 0.276642 0.242188
0.335297 0.284210 0.248230
0.335205 0.283173 0.245789
0.313629 0.264252 0.228638
0.309479 0.263214 0.230804
0.335297 0.284210 0.248230
0.346405 0.294617 0.258057
0.329163 0.278259 0.241638
0.317719 0.269775 0.235535
0.327606 0.277985 0.243164
0.333618 0.282867 0.247253
0.327515 0.276947 0.240692
0.325226 0.274353 0.237671
0.318512 0.267487 0.230957
0.319763 0.270142 0.235168
0.330902 0.280579 0.245056
0.323730 0.274658 0.239624
0.309235 0.260590 0.225433
0.317169 0.269440 0.235840
0.328247 0.279297 0.245270
0.335815 0.284485 0.247864
0.319183 0.269440 0.233551
0.316559 0.268158 0.233765
0.320404 0.271454 0.237274
0.332550 0.281891 0.245972
0.334534 0.281860 0.243652
0.319672 0.269135 0.232727
0.307678 0.260315 0.226929
0.333191 0.283234 0.248108
0.336273 0.284180 0.247040
0.325378 0.275970 0.240570
0.318207 0.269440 0.234711
0.327606 0.277985 0.243164
0.329071 0.277649 0.241180
0.317566 0.268127 0.232605
0.311523 0.263245 0.228516
0.319305 0.270416 0.235962
0.331543 0.281891 0.247162
0.342499 0.290710 0.254089
0.329163 0.278259 0.241638
0.317566 0.268127 0.232605
0.325317 0.275360 0.240112
0.327606 0.277985 0.243164
0.325226 0.274353 0.237671
0.325226 0.274353 0.237671
0.323059 0.272705 0.237061
0.329224 0.279266 0.244080
0.338562 0.286804 0.250122
0.335358 0.284790 0.248688
0.330963 0.281219 0.245544
0.829773 0.826385 0.834320
0.897644 0.901611 0.921509
0.331909 0.280579 0.243896
0.326843 0.275635 0.238586
0.326324 0.275330 0.238953
0.326447 0.276367 0.241394
0.340851 0.289429 0.253143
0.342377 0.289673 0.251617
0.319672 0.269135 0.232727
0.325165 0.273712 0.237183
0.342957 0.290375 0.253265
0.335815 0.284485 0.247864
0.320831 0.270721 0.234467
0.319824 0.270752 0.235657
0.339661 0.287781 0.251373
0.345062 0.291382 0.253387
0.337433 0.285797 0.248810
0.321289 0.270416 0.233673
0.323212 0.274353 0.239990
0.339203 0.288116 0.252197
0.346405 0.294617 0.258057
0.325378 0.275970 0.240570
0.319824 0.270752 0.235657
0.329224 0.279266 0.244080
0.337555 0.286804 0.251251
0.329803 0.279572 0.243774
0.323120 0.273407 0.237549
0.316833 0.266174 0.230011
0.317688 0.269135 0.235046
0.324677 0.274017 0.237976
0.327515 0.276947 0.240692
0.325226 0.274353 0.237671
0.325012 0.277283 0.243835
0.326447 0.276367 0.241394
0.325867 0.275665 0.239746
0.319183 0.269440 0.233551
0.310516 0.263245 0.229645
0.322235 0.274384 0.241150
0.334656 0.282867 0.246094
0.336823 0.284454 0.246704
0.325684 0.274017 0.236847
0.323059 0.272705 0.237061
0.345245 0.292999 0.256317
0.341858 0.289398 0.252014
0.320831 0.270721 0.234467
0.304321 0.256683 0.222595
0.313721 0.265228 0.231049
0.333008 0.281555 0.245148
0.329163 0.278259 0.241638
0.319672 0.269135 0.232727
0.317169 0.269440 0.235840
0.335297 0.284210 0.248230
0.334167 0.283203 0.246918
0.321472 0.272064 0.236603
0.315460 0.267151 0.232483
0.321381 0.271423 0.236084
0.337555 0.286804 0.251251
0.327515 0.276947 0.240692
0.325226 0.274353 0.237671
0.320770 0.270111 0.234009
0.327606 0.277985 0.243164
0.332550 0.281891 0.245972
0.331421 0.280884 0.244690
0.315277 0.265503 0.229553
0.320953 0.271759 0.236938
0.330353 0.280273 0.245392
0.333527 0.281860 0.244812
0.313141 0.264526 0.229431
0.316559 0.268158 0.233765
0.335907 0.285492 0.250305
0.334656 0.282867 0.246094
0.332886 0.280518 0.242706
0.319672 0.269135 0.232727
0.317688 0.269135 0.235046
0.339203 0.288116 0.252197
0.340179 0.288086 0.251038
0.323120 0.273407 0.237549
0.312164 0.264557 0.230591
0.316010 0.267822 0.234100
0.329224 0.279266 0.244080
0.337280 0.284180 0.245911
0.327515 0.276947 0.240692
0.315552 0.268158 0.234924
0.327606 0.277985 0.243164
0.342316 0.289062 0.251160
0.319183 0.269440 0.233551
0.311523 0.263245 0.228516
0.325500 0.277008 0.243042
0.343445 0.290070 0.252441
0.335815 0.284485 0.247864
0.323120 0.273407 0.237549
0.320770 0.270111 0.234009
0.325317 0.275360 0.240112
0.334808 0.284515 0.249023
0.327515 0.276947 0.240692
0.315460 0.267151 0.232483
0.317017 0.267822 0.232941
0.328247 0.279297 0.245270
0.331909 0.280579 0.243896
0.326843 0.275635 0.238586
0.326508 0.276978 0.241882
0.335754 0.283844 0.247406
0.334656 0.282867 0.246094
0.322937 0.271729 0.234589
0.312164 0.264557 0.230591
0.313568 0.263611 0.228149
0.323212 0.274353 0.239990
0.338074 0.287109 0.250916
0.329163 0.278259 0.241638
0.325684 0.274017 0.236847
0.329895 0.280609 0.246216
0.336914 0.285461 0.249146
0.331268 0.279236 0.241760
0.317566 0.268127 0.232605
0.305573 0.259338 0.226807
0.329224 0.279266 0.244080
0.348541 0.295624 0.258209
0.331421 0.280884 0.244690
0.317566 0.268127 0.232605
0.321564 0.273071 0.239044
0.327606 0.277985 0.243164
0.335205 0.283173 0.245789
0.321289 0.270416 0.233673
0.320953 0.271759 0.236938
0.335449 0.285828 0.251129
0.344757 0.293304 0.257141
0.331421 0.280884 0.244690
0.319183 0.269440 0.233551
0.327118 0.278290 0.243958
0.340302 0.289124 0.253479
0.335815 0.284485 0.247864
0.317078 0.268463 0.233429
0.316406 0.266510 0.230835
0.326141 0.278320 0.245148
0.340851 0.289429 0.253143
0.340759 0.288422 0.250702
0.333374 0.280212 0.241882
0.335114 0.282532 0.245270
0.345398 0.294617 0.259216
0.350006 0.295258 0.256195
0.333069 0.282196 0.245667
0.321930 0.271729 0.235779
0.329895 0.280609 0.246216
0.335297 0.284210 0.248230
0.335205 0.283173 0.245789
0.323395 0.271362 0.233795
0.317688 0.269135 0.235046
0.329224 0.279266 0.244080
0.334351 0.284851 0.249878
0.329163 0.278259 0.241638
0.317566 0.268127 0.232605
0.325317 0.275360 0.240112
0.341309 0.289093 0.252319
0.337280 0.284180 0.245911
0.325226 0.274353 0.237671
0.314728 0.265198 0.229889
0.327606 0.277985 0.243164
0.332703 0.283508 0.248901
0.329163 0.278259 0.241638
0.323120 0.273407 0.237549
0.317169 0.269440 0.235840
0.320404 0.271454 0.237274
0.331909 0.280579 0.243896
0.319183 0.269440 0.233551
0.320465 0.272034 0.237732
0.328064 0.277618 0.242310
0.330719 0.278931 0.242126
0.334534 0.281860 0.243652
0.335632 0.282837 0.244934
0.325317 0.275360 0.240112
0.335297 0.284210 0.248230
0.341858 0.289398 0.252014
0.330780 0.279572 0.242584
0.322113 0.273376 0.238708
0.325958 0.276642 0.242188
0.336914 0.285461 0.249146
0.339081 0.287109 0.249756
0.335205 0.283173 0.245789
0.327118 0.278290 0.243958
0.333618 0.282867 0.247253
0.340179 0.288086 0.251038
0.325378 0.275970 0.240570
0.311523 0.263245 0.228516
0.321381 0.271423 0.236084
0.329742 0.278992 0.243286
0.339569 0.286743 0.248932
0.329163 0.278259 0.241638
0.318665 0.269104 0.233887
0.331543 0.281891 0.247162
0.344604 0.291687 0.254211
0.327515 0.276947 0.240692
0.311523 0.263245 0.228516
0.324860 0.275696 0.240936
0.341980 0.290405 0.254425
0.206207 0.172668 0.148712
0.195770 0.164154 0.141449
0.197052 0.166809 0.145660
0.204041 0.171021 0.148102
0.216797 0.182831 0.158936
0.217377 0.183136 0.158600
0.207855 0.173981 0.149689
0.213379 0.178589 0.154144
0.215179 0.181488 0.157990
0.212250 0.177551 0.152832
0.207855 0.173981 0.149689
0.208313 0.173645 0.148834
0.213531 0.180206 0.157043
0.215179 0.181488 0.157990
0.211609 0.176239 0.150726
0.198059 0.166779 0.144501
0.202942 0.170074 0.146851
0.219543 0.185120 0.161163
0.220551 0.185120 0.160004
0.208008 0.175598 0.152588
0.198059 0.166779 0.144501
0.207489 0.175323 0.152954
0.217438 0.184143 0.161041
0.216156 0.181488 0.156830
0.204102 0.171661 0.148590
0.196899 0.165161 0.142731
0.203552 0.171387 0.148956
0.212891 0.178864 0.154938
0.213898 0.178864 0.153778
0.201843 0.169067 0.145569
0.205200 0.172668 0.149872
0.215790 0.182831 0.160095
0.078064 0.069977 0.064362
0.073517 0.064728 0.058258
0.074127 0.066010 0.060333
0.076874 0.068359 0.062592
0.078064 0.069977 0.064362
0.075775 0.067352 0.061310
0.073975 0.064392 0.057434
0.074615 0.065704 0.059540
0.078674 0.071289 0.066437
0.080170 0.070923 0.064484
0.075775 0.067352 0.061310
0.078064 0.069977 0.064362
0.078674 0.071289 0.066437
0.078522 0.069672 0.063538
0.075592 0.065704 0.058380
0.079712 0.071259 0.065308
0.074615 0.065704 0.059540
0.080353 0.072571 0.067413
