TheColourOfVoice/Assets/Scenes/MainGame/LUTs/LUTs_P.CUBE
#Created by: Adobe Photoshop Export Color Lookup Plugin
TITLE "LUTs_P.png"
#LUT size
LUT_3D_SIZE 8
#data domain
#LUT data points
DOMAIN_MIN 0.000000 0.000000 0.000000
DOMAIN_MAX 0.903226 0.903226 0.903226
0.000000 0.000000 0.000000
0.069427 0.032318 0.003998
0.138855 0.064636 0.008026
0.208313 0.096954 0.012054
0.277771 0.129272 0.016052
0.347229 0.161530 0.020081
0.416656 0.193939 0.024109
0.486115 0.226257 0.028107
0.070221 0.062134 0.056396
0.072479 0.064728 0.059418
0.070679 0.061798 0.055542
0.070862 0.063446 0.058472
0.062714 0.057587 0.054260
0.067932 0.059479 0.053314
0.063995 0.055573 0.049347
0.067932 0.059479 0.053314
0.325867 0.275665 0.239746
0.334656 0.282867 0.246094
0.345245 0.292999 0.256317
0.313721 0.265228 0.231049
0.317169 0.269440 0.235840
0.315460 0.267151 0.232483
0.325226 0.274353 0.237671
0.331421 0.280884 0.244690
0.982513 0.982666 0.998993
0.330719 0.278931 0.242126
0.335297 0.284210 0.248230
0.325958 0.276642 0.242188
0.327118 0.278290 0.243958
0.311523 0.263245 0.228516
0.329163 0.278259 0.241638
0.327515 0.276947 0.240692
0.335815 0.284485 0.247864
0.334656 0.282867 0.246094
0.331543 0.281891 0.247162
0.333801 0.284515 0.250183
0.315369 0.266510 0.231995
0.323578 0.273041 0.236725
0.325226 0.274353 0.237671
0.329620 0.277924 0.240814
0.331909 0.280579 0.243896
0.340851 0.289429 0.253143
0.342957 0.290375 0.253265
0.339661 0.287781 0.251373
0.323212 0.274353 0.239990
0.319824 0.270752 0.235657
0.323120 0.273407 0.237549
0.327515 0.276947 0.240692
0.335815 0.284485 0.247864
0.340851 0.289429 0.253143
0.345398 0.294617 0.259216
0.329895 0.280609 0.246216
0.317688 0.269135 0.235046
0.317566 0.268127 0.232605
0.325226 0.274353 0.237671
0.329163 0.278259 0.241638
0.081970 0.073883 0.068329
0.082153 0.075531 0.071289
0.080353 0.072571 0.067413
0.078522 0.069672 0.063538
0.072479 0.064728 0.059418
0.075775 0.067352 0.061310
0.075775 0.067352 0.061310
0.077911 0.068329 0.061432
0.005554 0.053894 0.096222
0.072632 0.085052 0.100098
0.144440 0.118530 0.104279
0.213867 0.150848 0.108276
0.283356 0.183167 0.112305
0.352783 0.215515 0.116333
0.422211 0.247772 0.120331
0.491699 0.280151 0.124359
0.081818 0.072266 0.065430
0.076447 0.068665 0.063416
0.082611 0.075195 0.070465
0.078674 0.071289 0.066437
0.072479 0.064728 0.059418
0.071838 0.063416 0.057312
0.079529 0.069611 0.062347
0.074127 0.066010 0.060333
0.327972 0.276642 0.239868
0.330719 0.278931 0.242126
0.343140 0.292023 0.256195
0.325958 0.276642 0.242188
0.315369 0.266510 0.231995
0.319824 0.270752 0.235657
0.317566 0.268127 0.232605
0.327515 0.276947 0.240692
0.987854 0.986145 0.999207
0.328613 0.277954 0.242004
0.321381 0.271423 0.236084
0.319916 0.271790 0.238098
0.313080 0.263916 0.228943
0.303650 0.255402 0.220520
0.336823 0.284454 0.246704
0.321472 0.272064 0.236603
0.345612 0.291687 0.253052
0.330719 0.278931 0.242126
0.319305 0.270416 0.235962
0.319916 0.271790 0.238098
0.310974 0.262909 0.228821
0.315460 0.267151 0.232483
0.327362 0.275330 0.237793
0.942841 0.940826 0.952240
0.329803 0.279572 0.243774
0.324677 0.274017 0.237976
0.337402 0.285187 0.248352
0.329742 0.278992 0.243286
0.313080 0.263916 0.228943
0.311523 0.263245 0.228516
0.313324 0.266174 0.232361
0.331421 0.280884 0.244690
0.335815 0.284485 0.247864
0.328613 0.277954 0.242004
0.339020 0.286438 0.249268
0.329895 0.280609 0.246216
0.323212 0.274353 0.239990
0.325226 0.274353 0.237671
0.321472 0.272064 0.236603
0.341217 0.288086 0.249878
0.392090 0.358246 0.313873
0.459167 0.389343 0.317749
0.526245 0.420502 0.321625
0.593292 0.451630 0.325531
0.661591 0.483368 0.329468
0.731018 0.515656 0.333496
0.800446 0.547943 0.337494
0.869904 0.580292 0.341522
0.011139 0.107819 0.192474
0.078186 0.138977 0.196350
0.145233 0.170074 0.200226
0.219452 0.204773 0.204529
0.288910 0.237091 0.208527
0.358337 0.269409 0.212555
0.427795 0.301727 0.216583
0.497253 0.333984 0.220581
0.081818 0.072266 0.065430
0.076447 0.068665 0.063416
0.078522 0.069672 0.063538
0.078674 0.071289 0.066437
0.072479 0.064728 0.059418
0.075775 0.067352 0.061310
0.071838 0.063416 0.057312
0.075775 0.067352 0.061310
0.339569 0.286743 0.248932
0.330902 0.280579 0.245056
0.325317 0.275360 0.240112
0.315826 0.266174 0.231171
0.323059 0.272705 0.237061
0.317719 0.269775 0.235535
0.329163 0.278259 0.241638
0.337433 0.285797 0.248810
0.332062 0.282196 0.246796
0.334656 0.282867 0.246094
0.337555 0.286804 0.251251
0.323853 0.275665 0.242065
0.313263 0.265533 0.231873
0.317566 0.268127 0.232605
0.329163 0.278259 0.241638
0.327515 0.276947 0.240692
0.324219 0.274384 0.238831
0.330902 0.280579 0.245056
0.333191 0.283234 0.248108
0.325958 0.276642 0.242188
0.315369 0.266510 0.231995
0.315460 0.267151 0.232483
0.323120 0.273407 0.237549
0.325378 0.275970 0.240570
0.327972 0.276642 0.239868
0.330902 0.280579 0.245056
0.339203 0.288116 0.252197
0.316010 0.267822 0.234100
0.319305 0.270416 0.235962
0.311523 0.263245 0.228516
0.332886 0.280518 0.242706
0.331421 0.280884 0.244690
0.337921 0.285492 0.247986
0.332550 0.281891 0.245972
0.325500 0.277008 0.243042
0.329895 0.280609 0.246216
0.319305 0.270416 0.235962
0.315460 0.267151 0.232483
0.323120 0.273407 0.237549
0.335205 0.283173 0.245789
0.389343 0.408051 0.409668
0.464752 0.443298 0.414032
0.531830 0.474457 0.417908
0.598846 0.505554 0.421783
0.667145 0.537292 0.425720
0.736572 0.569611 0.429749
0.806030 0.601898 0.433777
0.875458 0.634186 0.437775
0.016693 0.161713 0.288696
0.083771 0.192871 0.292603
0.150818 0.223999 0.296478
0.217896 0.255157 0.300354
0.284973 0.286285 0.304230
0.363922 0.323303 0.308807
0.433350 0.355621 0.312805
0.502838 0.387939 0.316833
0.078064 0.069977 0.064362
0.076447 0.068665 0.063416
0.082458 0.073578 0.067535
0.072968 0.064392 0.058594
0.072479 0.064728 0.059418
0.075775 0.067352 0.061310
0.071838 0.063416 0.057312
0.083618 0.075195 0.069305
0.339569 0.286743 0.248932
0.340698 0.287781 0.250244
0.343140 0.292023 0.256195
0.316010 0.267822 0.234100
0.314911 0.266846 0.232819
0.303833 0.257019 0.223450
0.338898 0.285461 0.246826
0.337433 0.285797 0.248810
0.335815 0.284485 0.247864
0.342499 0.290710 0.254089
0.333191 0.283234 0.248108
0.327606 0.277985 0.243164
0.315369 0.266510 0.231995
0.307617 0.259308 0.224487
0.325226 0.274353 0.237671
0.339081 0.287109 0.249756
0.337433 0.285797 0.248810
0.338562 0.286804 0.250122
0.342957 0.290375 0.253265
0.325958 0.276642 0.242188
0.307220 0.260651 0.227783
0.323578 0.273041 0.236725
0.319183 0.269440 0.233551
0.325378 0.275970 0.240570
0.335815 0.284485 0.247864
0.328613 0.277954 0.242004
0.333191 0.283234 0.248108
0.323853 0.275665 0.242065
0.323059 0.272705 0.237061
0.311523 0.263245 0.228516
0.322937 0.271729 0.234589
0.321472 0.272064 0.236603
0.331909 0.280579 0.243896
0.330719 0.278931 0.242126
0.323212 0.274353 0.239990
0.329742 0.278992 0.243286
0.321381 0.271423 0.236084
0.307617 0.259308 0.224487
0.323120 0.273407 0.237549
0.331421 0.280884 0.244690
0.394897 0.461945 0.505890
0.464355 0.494232 0.509918
0.537384 0.528381 0.514160
0.604431 0.559479 0.518036
0.672699 0.591187 0.521973
0.742157 0.623535 0.526001
0.811584 0.655792 0.529999
0.881042 0.688141 0.534027
0.022278 0.215668 0.384979
0.089325 0.246857 0.388855
0.156372 0.277893 0.392731
0.223450 0.309052 0.396606
0.290527 0.340179 0.400482
0.357574 0.371307 0.404388
0.438934 0.409576 0.409088
0.508392 0.441864 0.413086
0.078064 0.069977 0.064362
0.081818 0.072266 0.065430
0.082611 0.075195 0.070465
0.077057 0.070007 0.065521
0.072479 0.064728 0.059418
0.071838 0.063416 0.057312
0.075775 0.067352 0.061310
0.075928 0.069000 0.064240
0.341858 0.289398 0.252014
0.344604 0.291687 0.254211
0.341309 0.289093 0.252319
0.329895 0.280609 0.246216
0.319305 0.270416 0.235962
0.319824 0.270752 0.235657
0.325226 0.274353 0.237671
0.327515 0.276947 0.240692
0.987854 0.986145 0.999207
0.332550 0.281891 0.245972
0.333191 0.283234 0.248108
0.327606 0.277985 0.243164
0.319305 0.270416 0.235962
0.317566 0.268127 0.232605
0.325226 0.274353 0.237671
0.335358 0.284790 0.248688
0.331909 0.280579 0.243896
0.334656 0.282867 0.246094
0.323212 0.274353 0.239990
0.329895 0.280609 0.246216
0.305573 0.259338 0.226807
0.317566 0.268127 0.232605
0.321289 0.270416 0.233673
0.331421 0.280884 0.244690
0.331909 0.280579 0.243896
0.330902 0.280579 0.245056
0.335297 0.284210 0.248230
0.333618 0.282867 0.247253
0.321381 0.271423 0.236084
0.317566 0.268127 0.232605
0.325226 0.274353 0.237671
0.333069 0.282196 0.245667
0.331909 0.280579 0.243896
0.336914 0.285461 0.249146
0.327606 0.277985 0.243164
0.325958 0.276642 0.242188
0.309479 0.263214 0.230804
0.317719 0.269775 0.235535
0.325226 0.274353 0.237671
0.323730 0.274658 0.239624
0.400482 0.515900 0.602173
0.469940 0.548187 0.606201
0.539368 0.580505 0.610199
0.608826 0.612823 0.614227
0.678284 0.645142 0.618256
0.747711 0.677460 0.622253
0.817169 0.709747 0.626282
0.886597 0.742035 0.630280
0.027832 0.269592 0.481232
0.094910 0.300781 0.485138
0.161957 0.331879 0.489014
0.229034 0.363037 0.492889
0.296112 0.394135 0.496765
0.363129 0.425232 0.500641
0.430206 0.456360 0.504517
0.509491 0.497559 0.513275
0.079712 0.071259 0.065308
0.076447 0.068665 0.063416
0.080353 0.072571 0.067413
0.074799 0.067383 0.062500
0.076447 0.068665 0.063416
0.075775 0.067352 0.061310
0.075775 0.067352 0.061310
0.083435 0.073547 0.066376
0.335815 0.284485 0.247864
0.334808 0.284515 0.249023
0.325500 0.277008 0.243042
0.327606 0.277985 0.243164
0.321381 0.271423 0.236084
0.319824 0.270752 0.235657
0.315460 0.267151 0.232483
0.333527 0.281860 0.244812
0.993439 0.989838 0.999420
0.324677 0.274017 0.237976
0.335297 0.284210 0.248230
0.335907 0.285492 0.250305
0.313263 0.265533 0.231873
0.313782 0.265839 0.231537
0.332886 0.280518 0.242706
0.329803 0.279572 0.243774
0.331909 0.280579 0.243896
0.338562 0.286804 0.250122
0.325317 0.275360 0.240112
0.316010 0.267822 0.234100
0.309326 0.261627 0.227905
0.308228 0.260620 0.226624
0.327515 0.276947 0.240692
0.337433 0.285797 0.248810
0.329803 0.279572 0.243774
0.338562 0.286804 0.250122
0.331360 0.280243 0.244202
0.323853 0.275665 0.242065
0.311462 0.262604 0.228027
0.313782 0.265839 0.231537
0.325378 0.275970 0.240570
0.329163 0.278259 0.241638
0.324036 0.272705 0.235901
0.344604 0.291687 0.254211
0.327606 0.277985 0.243164
0.323853 0.275665 0.242065
0.317169 0.269440 0.235840
0.325226 0.274353 0.237671
0.325226 0.274353 0.237671
0.341400 0.289734 0.252808
0.406036 0.569763 0.698395
0.475494 0.602081 0.702423
0.544952 0.634430 0.706451
0.614380 0.666718 0.710449
0.682648 0.698456 0.714417
0.753296 0.731384 0.718506
0.822723 0.763672 0.722504
0.892151 0.795990 0.726532
0.033386 0.323486 0.577484
0.100464 0.354645 0.581360
0.167511 0.385742 0.585236
0.234589 0.416870 0.589111
0.301666 0.448059 0.593018
0.368713 0.479126 0.596893
0.435791 0.510315 0.600769
0.502869 0.541443 0.604645
0.081970 0.073883 0.068329
0.080170 0.070923 0.064484
0.074799 0.067383 0.062500
0.078522 0.069672 0.063538
0.072479 0.064728 0.059418
0.071838 0.063416 0.057312
0.075775 0.067352 0.061310
0.079712 0.071259 0.065308
0.334015 0.281555 0.244019
0.334656 0.282867 0.246094
0.337555 0.286804 0.251251
0.319916 0.271790 0.238098
0.319305 0.270416 0.235962
0.323578 0.273041 0.236725
0.315460 0.267151 0.232483
0.337433 0.285797 0.248810
0.561127 0.539886 0.531403
0.338562 0.286804 0.250122
0.329224 0.279266 0.244080
0.323700 0.274078 0.239166
0.319305 0.270416 0.235962
0.325226 0.274353 0.237671
0.325226 0.274353 0.237671
0.337433 0.285797 0.248810
0.345764 0.293304 0.255951
0.330902 0.280579 0.245056
0.339203 0.288116 0.252197
0.335907 0.285492 0.250305
0.309326 0.261627 0.227905
0.311523 0.263245 0.228516
0.319183 0.269440 0.233551
0.321472 0.272064 0.236603
0.328125 0.278259 0.242798
0.338715 0.288422 0.253021
0.345245 0.292999 0.256317
0.327606 0.277985 0.243164
0.309326 0.261627 0.227905
0.317566 0.268127 0.232605
0.321472 0.272064 0.236603
0.335205 0.283173 0.245789
0.345764 0.293304 0.255951
0.330902 0.280579 0.245056
0.321564 0.273071 0.239044
0.337555 0.286804 0.251251
0.305573 0.259338 0.226807
0.331421 0.280884 0.244690
0.327362 0.275330 0.237793
0.321472 0.272064 0.236603
0.411591 0.623688 0.794647
0.481079 0.656006 0.798676
0.550507 0.688354 0.802673
0.619965 0.720642 0.806702
0.688202 0.752350 0.810638
0.755280 0.783508 0.814545
0.828308 0.818756 0.819946
0.897736 0.849915 0.822784
0.038971 0.377441 0.673737
0.106049 0.408569 0.677612
0.173096 0.439697 0.681488
0.240173 0.470825 0.685364
0.307220 0.501953 0.689240
0.374268 0.533081 0.693115
0.441345 0.564178 0.696991
0.508423 0.595367 0.700897
0.078064 0.069977 0.064362
0.076447 0.068665 0.063416
0.074799 0.067383 0.062500
0.078522 0.069672 0.063538
0.074615 0.065704 0.059540
0.068115 0.061157 0.056274
0.075775 0.067352 0.061310
0.079712 0.071259 0.065308
0.335815 0.284485 0.247864
0.338562 0.286804 0.250122
0.327606 0.277985 0.243164
0.319916 0.271790 0.238098
0.311462 0.262604 0.228027
0.311523 0.263245 0.228516
0.319183 0.269440 0.233551
0.327515 0.276947 0.240692
0.869171 0.867493 0.878571
0.340363 0.289734 0.253967
0.339203 0.288116 0.252197
0.319916 0.271790 0.238098
0.319305 0.270416 0.235962
0.317566 0.268127 0.232605
0.323120 0.273407 0.237549
0.323730 0.274658 0.239624
0.343964 0.290405 0.252136
0.320770 0.270111 0.234009
0.315369 0.266510 0.231995
0.319916 0.271790 0.238098
0.315552 0.268158 0.234924
0.307617 0.259308 0.224487
0.335205 0.283173 0.245789
0.323730 0.274658 0.239624
0.329803 0.279572 0.243774
0.334656 0.282867 0.246094
0.347504 0.295624 0.259338
0.327606 0.277985 0.243164
0.313263 0.265533 0.231873
0.329620 0.277924 0.240814
0.325226 0.274353 0.237671
0.333527 0.281860 0.244812
0.337433 0.285797 0.248810
0.338562 0.286804 0.250122
0.325317 0.275360 0.240112
0.323853 0.275665 0.242065
0.313263 0.265533 0.231873
0.311523 0.263245 0.228516
0.325226 0.274353 0.237671
0.321289 0.270416 0.233673
0.417175 0.677643 0.890900
0.486633 0.709900 0.894897
0.556091 0.742249 0.898926
0.625519 0.774536 0.902954
0.693787 0.806274 0.906891
0.760834 0.837402 0.910767
0.827881 0.868500 0.914642
0.894958 0.899658 0.918518
